X: 68
T:Taflwn yr Hosan
T:We Throw the Stocking
M:9/8
L:1/8
Q:130
S:Mary Richards' (1787-1877) Collection
A:Wales
Z:brian_martin12345@yahoo.com
K:D
d2d ded dcB|d2d def gfe|d2d ded dcB|BcB Bcd ecA:||
fag fed cBA| fag fed efg|fag fed cBA|BcB Bcd ecA:||
